X: 40979
T: Trip To Dingle, The
R: polka
M: 2/4
K: Dmajor
|:DE/F/ AF|AB F2-|Fd BA|B/c/B/A/ FD|
B,2 A,B,|DE FA-|AB FE|1 D3A,:|2 D3d||
B2 AB|de F2|ED/E/ FE|E/F/E/D/ B,D|
B2AB|de fa|ab f/e/d|e3d|
B2 AB|de f2|ED/E/ FE|E/F/E/D/ B,A,|
B,2 A,B,|DE FA-|AB FE|D3A,||

